X:28
T:Nancy Dawson
M:6/8
K:G
"G"G2G GAB|d2B G2B|"D7"A2B A2B|A2G FED|\
"G"G2G GAB|d2B "Em"G2B|"A7"A2G F2E|"D"D3  D3::
"D"A2A A2B|A2G FED|"G"B2c d2c|d2g dBG|\
"C"c2B c2d|"Em"e2f "A7"gfe|"D7"dcB AGF|"G"G3  G3:|

